!!!COM: Chopin, Frederic
!!!CDT: 1810///-1849///
!!!OTL: Mazurka 52 in C Major
!!!SCA: B. 82
**kern	**dynam	**kern	**dynam
*staff2	*staff2	*staff1	*staff1
*Ipiano	*Ipiano	*Ipiano	*Ipiano
*>[A,B,B,C]	*>[A,B,B,C]	*>[A,B,B,C]	*>[A,B,B,C]
*>norep[A,B,C]	*>norep[A,B,C]	*>norep[A,B,C]	*>norep[A,B,C]
*>A	*>A	*>A	*>A
*clefF4	*clefF4	*clefG2	*clefG2
*k[]	*k[]	*k[]	*k[]
*C:	*C:	*C:	*C:
*M3/4	*M3/4	*M3/4	*M3/4
*MM120	*MM120	*MM120	*MM120
=1-	=1-	=1-	=1-
*	*	*^	*
4C'\ 4G'\ 4c'\	.	8.g/L	4e\	f
.	.	16b/Jk	.	.
4C'\ 4G'\ 4c'\	.	4cc/	4e\	.
4C'\ 4F#'\ 4c'\	.	4a/	4d#\	.
=2	=2	=2	=2	=2
4C\ 4G\ 4c\	.	4g/	4e\	.
4CC'/ 4GG'/ 4C'/	.	2cc/	2e\	.
4CC'/ 4GG'/ 4C'/	.	.	.	.
=3	=3	=3	=3	=3
4CC'/ 4GG'/ 4C'/	.	8.g/L	4e\	.
.	.	16b/Jk	.	.
4C'\ 4G'\ 4c'\	.	8cc/L	4e\	.
.	.	8dd/	.	.
4C'\ 4G'\ 4c'\	.	8ee/	4e\	.
.	.	8cc/J	.	.
=4	=4	=4	=4	=4
4C\ 4G\ 4c\	.	8ee/L	8e\L	.
.	.	8ff#/J	8a\J	.
4C\ 4G\ 4e\	.	2gg/	2g\	.
4C\ 4G\ 4e\	.	.	.	.
=5	=5	=5	=5	=5
4C\ 4G\ 4e\	.	8.gg/L	4g\	.
.	.	16ff#/Jk	.	.
4C\ 4G\ 4e\	.	8ee/L	4g\	.
.	.	8ff#/	.	.
4C\ 4A\ 4d\	.	8dd/	4f#\	.
.	.	8ff#/J	.	.
=6	=6	=6	=6	=6
4C\ 4G\ 4e\	.	4.gg/	8g\L	.
.	.	.	8a\J	.
(4BB-/ 4D/	.	.	[4g\	.
.	.	8gg#/L	.	.
4AA/) 4E/	.	8aa/	4g\] 4cc#\	.
.	.	8ggn/J	.	.
=7	=7	=7	=7	=7
4DD'/ 4D'/	.	8gg/L	4r	.
.	.	8ff#/J	.	.
4D'\ 4A'\ 4d'\	.	4dd/	4cc\	.
4D'\ 4A'\ 4d'\	.	4ff#/	[4cc\	.
=8	=8	=8	=8	=8
4GG'/	.	2gg/	8cc\L]	.
.	.	.	8cc\ 8dd\J	.
4G'\ 4d'\	.	.	4b\ 4dd\	.
4G'\ 4d'\	.	8gg/L	4b-\	.
.	.	8ff/J	.	.
=9	=9	=9	=9	=9
4G\ 4d\	.	(12ee/L	4b-\	p
.	.	12ff/	.	.
.	.	12ee/J	.	.
4A\ 4d\	.	8dd#/L	4a\	.
.	.	8ee/	.	.
4A\ 4c#\	.	8gg/	4g\	.
.	.	8ff/J	.	.
=10	=10	=10	=10	=10
4D\	.	8.ee/L	4f\	.
.	.	16a/Jk	.	.
4A\ 4d\	.	(4.dd/)	4f\	.
(4AA-/	.	.	4d\ 4f\	.
.	.	8cc/)	.	.
=11	=11	=11	=11	=11
4GG/)	.	12b/L	4r	.
.	.	12cc/	.	.
.	.	12b/J	.	.
4G'\ 4d'\	.	8a#/L	4f\	.
.	.	8b/	.	.
4G'\ 4d'\	.	8cc/	4f\	.
.	.	8dd/J	.	.
=12	=12	=12	=12	=12
4C'/	.	8g/L	4e\	.
.	.	16r	.	.
.	.	16b/Jk	.	.
4G'\ 4c'\	.	4.cc/	4e\	.
(4BB-/	.	.	4g\	.
.	.	8dd/	.	.
=13	=13	=13	=13	=13
4AA/)	.	(12ee/L	4g\ 4dd\	.
.	.	12ff/	.	.
.	.	12ee/J	.	.
4A'\ 4e'\	.	8dd#/L	4g\ 4cc#\	.
.	.	8ee/	.	.
4A'\ 4e'\	.	8gg/	4g\ 4cc#\	.
.	.	8ff/J	.	.
=14	=14	=14	=14	=14
4D\	.	8.ee/L	4g\ 4cc#\	.
.	.	16a/Jk	.	.
4A\ 4d\	.	(4.dd/)	4f#\	.
(4AA-/	.	.	4fn\	.
.	.	8ccn/)	.	.
=15	=15	=15	=15	=15
4GG/)	.	8b/L	4f\	.
.	.	8aa/	.	.
4G\ 4d\ 4f\	.	8aa-/	4b\	.
.	.	8gg/	.	.
4G\ 4d\ 4f\	.	8ff#/	4b\	.
.	.	8ffn/J	.	.
=16	=16	=16	=16	=16
4C/	.	8.ee/L	8.cc\L	.
.	.	16dd/Jk	16g\Jk	.
2C\ 2G\	.	2cc/	2e\	.
=17	=17	=17	=17	=17
4C'\ 4G'\ 4c'\	.	8.g/L	4e\	f
.	.	16b/Jk	.	.
4C'\ 4G'\ 4c'\	.	4cc/	4e\	.
4C'\ 4F#'\ 4c'\	.	4a/	4d#\	.
=18	=18	=18	=18	=18
4C\ 4G\ 4c\	.	4g/	4e\	.
4CC'/ 4GG'/ 4C'/	.	2cc/	2e\	.
4CC'/ 4GG'/ 4C'/	.	.	.	.
=19	=19	=19	=19	=19
4CC'/ 4GG'/ 4C'/	.	8.g/L	4e\	.
.	.	16b/Jk	.	.
4C'\ 4G'\ 4c'\	.	8cc/L	4e\	.
.	.	8dd/	.	.
4C'\ 4G'\ 4c'\	.	8ee/	4e\	.
.	.	8cc/J	.	.
=20	=20	=20	=20	=20
4C\ 4G\ 4c\	.	8ee/L	8e\L	.
.	.	8ff#/J	8a\J	.
4C\ 4G\ 4e\	.	2gg/	2g\	.
4C\ 4G\ 4e\	.	.	.	.
=21	=21	=21	=21	=21
4C'\ 4G'\ 4e'\	.	8.gg/L	4g\	.
.	.	16ff#/Jk	.	.
4C'\ 4G'\ 4e'\	.	8ee/L	4g\	.
.	.	8ff#/	.	.
4C'\ 4A'\ 4d'\	.	8dd/	4f#\	.
.	.	8ff#/J	.	.
=22	=22	=22	=22	=22
4C\ 4G\ 4e\	.	4.gg/	8g\L	.
.	.	.	8a\J	.
(4BB-/ 4D/	.	.	[4g\	.
.	.	8gg#/L	.	.
4AA/) 4E/	.	8aa/	4g\] 4cc#\	.
.	.	8ggn/J	.	.
=23	=23	=23	=23	=23
4DD/ 4D/	.	8gg/L	4r	.
.	.	8ff#/J	.	.
4D'\ 4A'\ 4d'\	.	4dd/	4cc\	.
4D'\ 4A'\ 4d'\	.	4ff#/	[4cc\	.
=24	=24	=24	=24	=24
4GG'/	.	2gg/	8cc\L]	.
.	.	.	8cc\ 8dd\J	.
4G'\ 4d'\	.	.	4b\ 4dd\	.
4G'\ 4d'\	.	8gg/L	4b-\	.
.	.	8ff/J	.	.
=25	=25	=25	=25	=25
4G\ 4d\	.	(12ee/L	4b-\	p
.	.	12ff/	.	.
.	.	12ee/J	.	.
4A\ 4d\	.	8dd#/L	4a\	.
.	.	8ee/	.	.
4A\ 4c#\	.	8gg/	4g\	.
.	.	8ff/J	.	.
=26	=26	=26	=26	=26
4D\	.	8.ee/L	4f\	.
.	.	16a/Jk	.	.
4A\ 4d\	.	(4.dd/)	4f\	.
(4AA-/	.	.	4d\ 4f\	.
.	.	8cc/)	.	.
=27	=27	=27	=27	=27
4GG/)	.	12b/L	4r	.
.	.	12cc/	.	.
.	.	12b/J	.	.
4G'\ 4d'\	.	8a#/L	4f\	.
.	.	8b/	.	.
4G'\ 4d'\	.	8cc/	4f\	.
.	.	8dd/J	.	.
=28	=28	=28	=28	=28
4C'/	.	8g/L	4e\	.
.	.	16r	.	.
.	.	16b/Jk	.	.
4G\ 4c\	.	4.cc/	4e\	.
(4BB-/	.	.	4g\	.
.	.	8dd/	.	.
=29	=29	=29	=29	=29
4AA/)	.	(12ee/L	4g\ 4dd\	.
.	.	12ff/	.	.
.	.	12ee/J	.	.
4A'\ 4e'\	.	8dd#/L	4g\ 4cc#\	.
.	.	8ee/	.	.
4A'\ 4e'\	.	8gg/	4g\ 4cc#\	.
.	.	8ff/J	.	.
=30	=30	=30	=30	=30
4D\	.	8.ee/L	4g\ 4cc#\	.
.	.	16a/Jk	.	.
4A\ 4d\	.	(4.dd/)	4f#\	.
(4AA-/	.	.	4fn\	.
.	.	8ccn/)	.	.
=31	=31	=31	=31	=31
4GG/)	.	8b/L	4f\	.
.	.	8aa/	.	.
4G\ 4d\ 4f\	.	8aa-/	4b\	.
.	.	8gg/	.	.
4G\ 4d\ 4f\	.	8ff#/	4b\	.
.	.	8ffn/J	.	.
=32	=32	=32	=32	=32
4C/	.	8.ee/L	8.cc\L	.
.	.	16dd/Jk	16g\Jk	.
2C\ 2G\	.	2cc/	2e\	.
*	*	*v	*v	*
=33!|:	=33!|:	=33!|:	=33!|:
*>B	*>B	*>B	*>B
*	*	*^	*
*^	*	*	*	*
4DD/ 4D/	4r	.	4A/ 4f#/ 4cc/	4r	f
4r	4D\ 4A\	.	4cc/	4f#\	.
(8d/L	4D\	.	(8b/L	4f#\	.
8c/J)	.	.	8a/J)	.	.
*	*	*	*v	*v	*
=34	=34	=34	=34	=34
4B/	4GG\	.	8g\ 8b\L	.
.	.	.	16r	.
.	.	.	16g\ 16b\ 16gg\Jk	.
4r	4D'\ 4G'\ 4B'\	.	4b'\ 4dd'\ 4bb'\	.
4r	4D'\ 4G'\ 4B'\	.	4cc'\ 4ee'\ 4ccc'\	.
*v	*v	*	*	*
=35	=35	=35	=35
4DD/	.	8b\ 8dd\ 8bb\L	.
.	.	8a\ 8cc\ 8aa\J	.
4D\ 4A\ 4c\	.	4f#\ 4a\ 4ff#\	.
4D\ 4A\ 4c\	.	4b'\ 4dd'\ 4bb'\	.
=36	=36	=36	=36
4GG/	.	8.a\ 8.cc\ 8.aa\L	.
.	.	16g\ 16b\ 16gg\Jk	.
2GG^\ 2D^\ 2B^\	.	4.d^/ 4.g^/ 4.dd^/	.
.	.	8e/ 8ee/	.
=37	=37	=37	=37
4DD/ 4D/	.	8.d\ 8.cc\ 8.dd\L	.
.	.	16a\ 16cc\ 16dd\Jk	.
4D\ 4F#\ 4c\	.	4d\ 4cc\ 4dd\	.
4D\ 4F#\ 4c\	.	4a\ 4cc\ 4dd\	.
=38	=38	=38	=38
4GG'/	.	8.d\ 8.b\ 8.dd\L	.
.	.	16g\ 16b\ 16gg\Jk	.
4D'\ 4G'\ 4B'\	.	4b'\ 4dd'\ 4bb'\	.
4D'\ 4G'\ 4B'\	.	4cc'\ 4ee'\ 4ccc'\	.
=39	=39	=39	=39
4DD/	.	8.b\ 8.dd\ 8.bb\L	.
.	.	16a\ 16cc\ 16aa\Jk	.
4D\ 4A\ 4c\	.	4f#'\ 4a'\ 4ff#'\	.
4D'\ 4A'\ 4c'\	.	4b'\ 4dd'\ 4bb'\	.
=40	=40	=40	=40
*	*	*^	*
4GG/	.	2r	8a\ 8cc\ (8aa\L	.
.	.	.	8g\ 8b\ 8gg\J)	.
4D\ 4B\	.	.	4g\ 4b\ 4gg\	.
4C#\ (4B-\	.	(8ff#/L	4g\	.
.	.	8ee/J)	.	.
=41	=41	=41	=41	=41
4Cn\ 4A\)	.	8dd/L	8f#\ 8cc\L	.
.	.	8dd/J	8b\J	.
4D'\ 4F#'\ 4c'\	.	4dd/	4a\	.
4D'\ 4F#'\ 4c'\	.	8dd/L	8b\L	.
.	.	8dd/J	8a\J	.
*	*	*v	*v	*
=42	=42	=42	=42
4GG/	.	8.g\ 8.dd\L	.
.	.	16b\ 16gg\Jk	.
4D'\ 4G'\ 4B'\	.	4.dd\ (4.bb\	.
4D\ 4G\ 4B\	.	.	.
.	.	8ee\ 8ccc\)	.
=43	=43	=43	=43
4DD/	.	8.dd\ 8.bb\L	.
.	.	16cc\ 16aa\Jk	.
4D'\ 4d'\	.	4.a\ 4.ff#\	.
4D'\ 4d'\	.	.	.
.	.	8dd\ 8bb\	.
=44	=44	=44	=44
*	*	*^	*
4GG'/	.	4r	8.cc\ 8.aa\L	.
.	.	.	16b\ 16gg\Jk	.
4G'\ 4d'\	.	4.dd/	4b\	.
4G'\ 4d'\	.	.	4b\	.
.	.	8ee/	.	.
=45	=45	=45	=45	=45
4DD'/	.	8.dd/L	8.cc\L	.
.	.	16dd/Jk	16cc\Jk	.
4D'\ 4A'\ 4d'\	.	4dd/	4f#\	.
4D'\ 4A'\ 4d'\	.	4dd/	4cc\	.
*	*	*v	*v	*
=46	=46	=46	=46
4GG/	.	8.b\ 8.dd\L	.
.	.	16b\ 16gg\Jk	.
4G'\ 4d'\	.	4.dd\ (4.bb\	.
4G'\ 4d'\	.	.	.
.	.	8ee\ 8ccc\)	.
=47	=47	=47	=47
4DD/	.	8dd\ 8bb\L	.
.	.	16r	.
.	.	16cc#\ 16aa#\Jk	.
4D'\ 4d'\	.	4ccn\ 4ff#\ 4aan\	.
4D'\ 4d'\	.	4dd\ 4bb\	.
=48	=48	=48	=48
4G\ 4d\	.	8cc\ 8aa\L	.
.	.	8cc\ 8aa-\J	.
2G\ 2d\	.	6b\ (6gg\	.
.	.	6b\ 6ff#\	.
.	.	6b\ 6ffn\)	.
=49	=49	=49	=49
*	*	*^	*
4G\ 4d\	.	(12ee/L	4b-\	p
.	.	12ff/	.	.
.	.	12ee/J	.	.
4A\ 4d\	.	8dd#/L	4a\	.
.	.	8ee/	.	.
4A\ 4c#\	.	8gg/	4g\	.
.	.	8ff/J	.	.
=50	=50	=50	=50	=50
4D\	.	8.ee/L	4f\	.
.	.	16a/Jk	.	.
(4A\ 4d\	.	(4.dd/)	4f\	.
4AA-/	.	.	4f\	.
.	.	8cc/)	.	.
=51	=51	=51	=51	=51
4GG/)	.	12b/L	4r	.
.	.	12cc/	.	.
.	.	12b/J	.	.
4G'\ 4d'\	.	8a#/L	4f\	.
.	.	8b/	.	.
4G'\ 4d'\	.	8cc/	4f\	.
.	.	8dd/J	.	.
=52	=52	=52	=52	=52
4C/	.	8g/L	4e\	.
.	.	16r	.	.
.	.	16b/Jk	.	.
4G\ 4c\	.	4.cc/	4e\	.
(4BB-/	.	.	4g\	.
.	.	8dd/	.	.
=53	=53	=53	=53	=53
4AA/)	.	(12ee/L	4dd\	.
.	.	12ff/	.	.
.	.	12ee/J	.	.
4A'\ 4e'\	.	8dd#/L	4g\ 4cc#\	.
.	.	8ee/	.	.
4A'\ 4e'\	.	8gg/	4g\ 4cc#\	.
.	.	8ff/J	.	.
=54	=54	=54	=54	=54
4D\	.	8.ee/L	4g\ 4cc#\	.
.	.	16a/Jk	.	.
4A\ 4d\	.	(4.dd/)	4f#\	.
(4AA-/	.	.	4fn\	.
.	.	8ccn/)	.	.
=55	=55	=55	=55	=55
4GG/)	.	8b/L	4f\	.
.	.	8aa/	.	.
4G'\ 4d'\ 4f'\	.	8aa-/	4b\	.
.	.	8gg/	.	.
4G'\ 4d'\ 4f'\	.	8ff#/	4b\	.
.	.	8ffn/J	.	.
=56	=56	=56	=56	=56
4CC/	.	8.ee/L	8.cc\L	.
.	.	16dd/Jk	16g\Jk	.
2C\ 2G\	.	2cc/	2e\	.
*	*	*v	*v	*
=57:|!	=57:|!	=57:|!	=57:|!
*>C	*>C	*>C	*>C
*k[b-]	*k[b-]	*k[b-]	*k[b-]
4C'\ 4G'\ 4B-'\ 4e'\	.	(8cc\L	f
.	.	8dd\J	.
4C\ 4G\ 4B-\ 4e\	.	4ee\	.
4C'\ 4G'\ 4B-'\ 4e'\	.	8ff\L	.
.	.	8gg\J	.
=58	=58	=58	=58
4F'\ 4A'\ 4f'\	.	8aa\L	.
.	.	8ccc\J)	.
4FF'/	.	(4.ddd^\	.
4FF'/	.	.	.
.	.	8ccc\)	.
=59	=59	=59	=59
4F'\ 4B-'\ 4e'\	.	12bbn\L	.
.	.	12ccc\	.
.	.	12ddd\J	.
4FF'/	.	4ccc'\	.
4FF'/	.	(8gg\L	.
.	.	8bb-\J)	.
=60	=60	=60	=60
4F'\ 4A'\ 4f'\	p	8aa\L	.
.	.	8ccc\J	.
4FF'/	.	(4.ddd^\	.
4FF'/	.	.	.
.	.	8ccc\)	.
=61	=61	=61	=61
4F'\ 4B-'\ 4e'\	.	12bbn\L	.
.	.	12ccc\	.
.	.	12ddd\J	.
4FF'/	.	4ccc'\	.
4FF'/	.	(8gg\L	.
.	.	8bb-\J)	.
=62	=62	=62	=62
4F'\ 4A'\ 4f'\	.	(8aa\L	.
.	.	8bb-\J	.
4FF'/	.	4.ddd^\	.
4FF'/	.	.	.
.	.	8ccc\)	.
=63	=63	=63	=63
4F'\ 4B-'\ 4e'\	.	12bbn\L	.
.	.	12ccc\	.
.	.	12ddd\J	.
4FF'/	.	4ccc'\	.
4FF'/	.	8gg\L	.
.	.	8aa\J	.
=64	=64	=64	=64
4F\ 4A\ 4f\	.	12ff\L	.
.	.	12gg\	.
.	.	12aa\J	.
4G\ 4Bn\ 4f\	.	4gg\	.
4GG'/	.	8ff\L	.
.	.	8dd\J	.
=65	=65	=65	=65
4CC'/	.	8cc\	.
.	.	16r	.
.	.	16dd\	.
4C'\ 4G'\ 4B-'\ 4e'\	.	4ee\	.
4C'\ 4G'\ 4B-'\ 4e'\	.	8ff\L	.
.	.	8gg\J	.
=66	=66	=66	=66
*	*	*^	*
4F'\ 4A'\ 4f'\	.	8aa/L	4r	.
.	.	8bb-/J	.	.
4FF'/	.	4.ddd^/	4cc\	.
4FF'/	.	.	4cc\	.
.	.	8ccc/	.	.
=67	=67	=67	=67	=67
4F'\ 4B-'\ 4e'\	.	12bb-/L	4r	.
.	.	12ccc/	.	.
.	.	12ddd/J	.	.
4FF'/	.	4ccc/	4cc\	.
4FF'/	.	8gg/L	4cc\	.
.	.	8bb-/J	.	.
=68	=68	=68	=68	=68
4F'\ 4A'\ 4f'\	.	8aa/L	4r	.
.	.	8bb-/J	.	.
4FF'/	.	4.ddd^/	4cc\	.
4FF'/	.	.	4cc\	.
.	.	8ccc/	.	.
=69	=69	=69	=69	=69
4F'\ 4B-'\ 4e'\	.	12bbn/L	4r	.
.	.	12ccc/	.	.
.	.	12ddd/J	.	.
4FF'/	.	4ccc/	4cc\	.
4FF'/	.	8gg/L	4cc\	.
.	.	8bb-/J	.	.
=70	=70	=70	=70	=70
4F'\ 4A'\ 4f'\	.	8aa/L	4r	.
.	.	8bb-/J	.	.
4FF'/	.	4.ddd^/	4cc\	.
4FF'/	.	.	4cc\	.
.	.	8ccc/	.	.
=71	=71	=71	=71	=71
4F'\ 4B-'\ 4e'\	.	12bbn/L	4r	.
.	.	12ccc/	.	.
.	.	12ddd/J	.	.
4FF'/	.	4ccc/	4cc\	.
4F^\ 4B-^\ (4e^\	.	8gg/L	4cc\	.
.	.	8aa/J	.	.
=72	=72	=72	=72	=72
4F\ 4A\ 4f\)	.	4ff/	4cc\	.
4FF'\ 4C'\ 4A'\	.	4ff\ 4aa\ 4fff\	4r	.
4r	.	4r	4r	.
*	*	*v	*v	*
=73	=73	=73	=73
*k[]	*k[]	*k[]	*k[]
*	*	*^	*
4C\ 4G\ 4c\	.	8.g/L	4e\	f
.	.	16b/Jk	.	.
4C\ 4G\ 4c\	.	4cc/	4e\	.
4C\ 4F#\ 4c\	.	4a/	4d#\	.
=74	=74	=74	=74	=74
4C\ 4G\ 4c\	.	4g/	4e\	.
4CC'/ 4GG'/ 4C'/	.	2cc^/	2e\	.
4CC'/ 4GG'/ 4C'/	.	.	.	.
=75	=75	=75	=75	=75
4CC'/ 4GG'/ 4C'/	.	8.g/L	4e\	.
.	.	16b/Jk	.	.
4C'\ 4G'\ 4c'\	.	8cc/L	4e\	.
.	.	8dd/	.	.
4C'\ 4G'\ 4c'\	.	8ee/	4e\	.
.	.	8cc/J	.	.
=76	=76	=76	=76	=76
4C'\ 4G'\ 4c'\	.	8ee/L	8e\L	.
.	.	8ff#/J	8a\J	.
4C'\ 4G'\ 4e'\	.	2gg/	2g\	.
4C'\ 4G'\ 4e'\	.	.	.	.
=77	=77	=77	=77	=77
4C\ 4G\ 4e\	.	8.gg/L	4g\	.
.	.	16ff#/Jk	.	.
4C\ 4G\ 4e\	.	8ee/L	4g\	.
.	.	8ff#/	.	.
4C\ 4A\ 4d\	.	8dd/	4f#\	.
.	.	8ff#/J	.	.
=78	=78	=78	=78	=78
4C\ 4G\ 4e\	.	4.gg/	8g\L	.
.	.	.	8a\J	.
(4BB-/ 4D/	.	.	[4g\	.
.	.	8gg/	.	.
4AA/) 4E/	.	8aa/L	4g\] 4cc#\	.
.	.	8ggn/J	.	.
=79	=79	=79	=79	=79
4DD/ 4D/	.	(8gg/L	4r	.
.	.	8ff#/J)	.	.
4D'\ 4A'\ 4d'\	.	4dd/	4cc\	.
4D'\ 4A'\ 4d'\	.	4ff#/	[4cc\	.
=80	=80	=80	=80	=80
4GG/	.	2gg/	8cc\L]	.
.	.	.	8b\ 8dd\J	.
4G'\ 4d'\	.	.	4b\ 4dd\	.
4G'\ 4d'\	.	(8gg/L	4b-\	.
.	.	8ff/J)	.	.
=81	=81	=81	=81	=81
4G\ 4d\	.	(12ee/L	4b-\	p
.	.	12ff/	.	.
.	.	12ee/J	.	.
4A\ 4d\	.	8dd#/L	4a\	.
.	.	8ee/	.	.
4A\ 4c#\	.	8gg/	4g\	.
.	.	8ff/J	.	.
=82	=82	=82	=82	=82
4D\	.	8.ee/L	4f\	.
.	.	16a/Jk	.	.
4A\ 4d\	.	(4.dd/)	4f\	.
(4AA-/	.	.	4d\ 4f\	.
.	.	8cc/)	.	.
=83	=83	=83	=83	=83
4GG/)	.	(12b/L	4r	.
.	.	12cc/	.	.
.	.	12b/J	.	.
4G'\ 4d'\	.	8a#/L	4f\	.
.	.	8b/	.	.
4G'\ 4d'\	.	8cc/	4f\	.
.	.	8dd/J)	.	.
=84	=84	=84	=84	=84
4C/	.	8g/L	4e\	.
.	.	16r	.	.
.	.	16b/Jk	.	.
4G\ 4c\	.	4.cc^/	4e\	.
(4BB-/	.	.	4g\	.
.	.	8dd/	.	.
=85	=85	=85	=85	=85
4AA/)	.	(12ee/L	4g\ 4dd\	.
.	.	12ff/	.	.
.	.	12ee/J	.	.
4A'\ 4e'\	.	8dd#/L	4g\ 4cc#\	.
.	.	8ee/	.	.
4A\ 4e\	.	8gg/	4g\ 4cc#\	.
.	.	8ff/J	.	.
=86	=86	=86	=86	=86
4D\	.	8.ee/L	4g\ 4cc#\	.
.	.	16a/Jk	.	.
4A\ 4d\	.	(4.dd/)	4f#\	.
(4AA-/	.	.	4fn\	.
.	.	8cc#/)	.	.
=87	=87	=87	=87	=87
4GG/)	.	8b/L	4f\	.
.	.	8aa/	.	.
4G\ 4d\ 4f\	.	8aa-/	4b\	.
.	.	8gg/	.	.
4G\ 4d\ 4f\	.	8ff#/	4b\	.
.	.	8ffn/J	.	.
=88	=88	=88	=88	=88
4C/	.	8.ee/L	8.cc\L	.
.	.	16dd/Jk	16g\Jk	.
2C\ 2G\	.	2cc/	2e\	.
=89	=89	=89	=89	=89
*^	*	*	*	*
4r	4DD/ 4D/	.	4A/ 4f#/ 4cc/	4r	f
4D\ 4A\	4r	.	4cc/	4f#\	.
8d/L	4D\	.	8b/L	4f#\	.
8c/J	.	.	8a/J	.	.
*	*	*	*v	*v	*
=90	=90	=90	=90	=90
4B/	4GG\	.	8g\ 8b\L	.
.	.	.	16r	.
.	.	.	16g\ 16b\ 16gg\Jk	.
4r	4D'\ 4G'\ 4B'\	.	4b'\ 4dd'\ 4bb'\	.
4r	4D'\ 4G'\ 4B'\	.	4cc'\ 4ee'\ 4ccc'\	.
*v	*v	*	*	*
=91	=91	=91	=91
4DD/	.	8b\ 8dd\ 8bb\L	.
.	.	8a\ 8cc\ 8aa\J	.
4D'\ 4A'\ 4c'\	.	4f#'\ 4a'\ 4ff#'\	.
4D'\ 4A'\ 4c'\	.	4b'\ 4dd'\ 4bb'\	.
=92	=92	=92	=92
4GG/	.	8a\ 8cc\ 8aa\L	.
.	.	8g\ 8b\ 8gg\J	.
2GG^\ 2D^\ 2B^\	.	(4.d^/ 4.g^/ 4.dd^/	.
.	.	8e/) 8ee/	.
=93	=93	=93	=93
4DD/ 4D/	.	8.d\ 8.cc\ 8.dd\L	.
.	.	16a\ 16cc\ 16dd\Jk	.
4D'\ 4F#'\ 4c'\	.	4d\ 4cc\ 4dd\	.
4D'\ 4F#'\ 4c'\	.	4a\ 4cc\ 4dd\	.
=94	=94	=94	=94
4GG/	.	8.d\ 8.b\ 8.dd\L	.
.	.	16g\ 16b\ 16gg\Jk	.
4D'\ 4G'\ 4B'\	.	4b\ 4dd\ 4bb\	.
4D'\ 4G'\ 4B'\	.	8dd\ 8ff#\ 8ddd\L	.
.	.	8cc\ 8ee\ 8ccc\J	.
=95	=95	=95	=95
4DD/	.	8.b\ 8.dd\ 8.bb\L	.
.	.	16a\ 16cc\ 16aa\Jk	.
4D'\ 4A'\ 4c'\	.	4f#\ 4a\ 4ff#\	.
4D'\ 4A'\ 4c'\	.	4b\ 4dd\ 4bb\	.
=96	=96	=96	=96
*	*	*^	*
4GG/	.	4r	8.a\ 8.cc\ 8.aa\L	.
.	.	.	16g\ 16b\ 16gg\Jk	.
4D\ 4B\	.	4r	4g\ 4b\ 4gg\	.
4C#\ 4B-\	.	8ff#/L	4g\	.
.	.	8ee/J	.	.
=97	=97	=97	=97	=97
4D\ 4A\	.	8dd/L	8f#\ 8cc\L	.
.	.	8dd/J	8b\J	.
4D'\ 4F#'\ 4c'\	.	4dd/	4a\	.
4D'\ 4F#'\ 4c'\	.	8dd/L	8b\L	.
.	.	8dd/J	8a\J	.
*	*	*v	*v	*
=98	=98	=98	=98
4GG'/	.	8.g\ 8.dd\L	.
.	.	16b\ 16gg\Jk	.
4D'\ 4G'\ 4B'\	.	4.dd\ 4.bb\	.
4D'\ 4G'\ 4B'\	.	.	.
.	.	8ee\ 8ccc\	.
=99	=99	=99	=99
4DD'/	.	8.dd\ 8.bb\L	.
.	.	16cc\ 16aa\Jk	.
4D'\ 4d'\	.	4.a\ 4.ff#\	.
4D'\ 4d'\	.	.	.
.	.	8dd\ 8ccc\	.
=100	=100	=100	=100
*	*	*^	*
4GG/	.	4r	8.cc\ 8.aa\L	.
.	.	.	16b\ 16gg\Jk	.
4G'\ 4d'\	.	4.dd/	4b\	.
4G'\ 4d'\	.	.	4b\	.
.	.	8ee/	.	.
=101	=101	=101	=101	=101
4DD/	.	8.dd/L	8.cc\L	.
.	.	16dd/Jk	16cc\Jk	.
4D'\ 4A'\ 4d'\	.	4dd/	4f#\	.
4D'\ 4A'\ 4d'\	.	4dd/	4cc\	.
*	*	*v	*v	*
=102	=102	=102	=102
4GG/	.	8.b\ 8.dd\L	.
.	.	16b\ 16gg\Jk	.
4G'\ 4d'\	.	4dd\ (4bb\	.
4G'\ 4d'\	.	8ff#\ 8ddd\L	.
.	.	8ee\ 8ccc\J	.
=103	=103	=103	=103
4DD'/	.	8dd\ 8bb\L)	.
.	.	16r	.
.	.	16cc#\ 16aa#\Jk	.
4D'\ 4d'\	.	4ccn\ 4ff#\ 4aan\	.
4D'\ 4d'\	.	4dd\ 4bb\	.
=104	=104	=104	=104
4G\ 4d\	.	8cc\ 8aa\L	.
.	.	8cc\ 8aa-\J	.
2G\ 2d\	.	6b\ (6gg\	.
.	.	6b\ 6ff#\	.
.	.	6b\ 6ffn\)	.
=105	=105	=105	=105
*	*	*^	*
4G\ 4d\	.	(12ee/L	4b-\	p
.	.	12ff/	.	.
.	.	12ee/J	.	.
4A\ 4d\	.	8dd#/L	4a\	.
.	.	8ee/	.	.
4AA\ 4c#\	.	8gg/	4g\	.
.	.	8ff/J	.	.
=106	=106	=106	=106	=106
4D\ 4d\	.	8.ee/L	4f#\	.
.	.	16a/Jk	.	.
4A\ 4d\	.	(4.dd/)	4fn\	.
(4AA-/	.	.	4d\ 4f\	.
.	.	8cc/)	.	.
=107	=107	=107	=107	=107
4GG/)	.	(12b/L	4r	.
.	.	12cc/	.	.
.	.	12b/J	.	.
4G\ 4d\	.	8a#/L	4f\	.
.	.	8b/	.	.
4G\ 4d\	.	8cc/	4f\	.
.	.	8dd/J)	.	.
=108	=108	=108	=108	=108
4C/	.	8g/L	4e\	.
.	.	16r	.	.
.	.	16b/Jk	.	.
4G\ 4c\	.	4.cc/	4e\	.
(4BB-/	.	.	4g\	.
.	.	8dd/	.	.
=109	=109	=109	=109	=109
4AA/)	.	12ee/L	4g\ 4dd\	f
.	.	12ff/	.	.
.	.	12ee/J	.	.
4A'\ 4e'\	.	8dd#/L	4g\ 4cc#\	.
.	.	8ee/	.	.
4A'\ 4e'\	.	8gg/	4g\ 4cc#\	.
.	.	8ff/J	.	.
=110	=110	=110	=110	=110
4D\	.	8.ee/L	4g\ 4cc#\	.
.	.	16a/Jk	.	.
4A\ 4d\	.	4.dd/	4f#\	.
(4AA-/	.	.	4fn\	.
.	.	8ccn/	.	.
=111	=111	=111	=111	=111
4GG/)	.	8b/L	4f\	.
.	.	8aa/	.	.
4G'\ 4d'\	.	8gg/	4r	.
.	.	8ff/	.	.
4B'\ 4f'\	.	8dd/	4g\	.
.	.	8ee/J	.	.
*	*	*v	*v	*
=112	=112	=112	=112
4c\ 4e\	.	4g/ 4cc/	.
4CC/ 4GG/ 4E/	.	4gg\ 4ccc\	ff
4r	.	4r	.
==	==	==	==
*-	*-	*-	*-
!!!SMS: Mikuli edition, G. Schirmer (1894-1898)
!!!ENC: Craig Stuart Sapp
!!!END: 2005/06/14/
